antibot/app/images/dist/service-hardtarget-icon.svg

<svg width="28" height="46" viewBox="0 0 28 46" fill="none" xmlns="http://www.w3.org/2000/svg">
<path d="M22.443 0.0957031H6.04297C4.68373 0.0957031 3.38017 0.635657 2.41905 1.59678C1.45792 2.5579 0.917969 3.86147 0.917969 5.2207V40.0707C0.917969 41.4299 1.45792 42.7335 2.41905 43.6946C3.38017 44.6557 4.68373 45.1957 6.04297 45.1957H22.443C23.8022 45.1957 25.1058 44.6557 26.0669 43.6946C27.028 42.7335 27.568 41.4299 27.568 40.0707V5.2207C27.568 3.86147 27.028 2.5579 26.0669 1.59678C25.1058 0.635657 23.8022 0.0957031 22.443 0.0957031ZM14.243 43.1457C12.5415 43.1457 11.168 41.7722 11.168 40.0707C11.168 38.3692 12.5415 36.9957 14.243 36.9957C15.9445 36.9957 17.318 38.3692 17.318 40.0707C17.318 41.7722 15.9445 43.1457 14.243 43.1457ZM23.468 34.9457H5.01797V6.2457H23.468V34.9457Z" fill="#333333"/>
<path d="M22.443 0.0957031H6.04297C4.68373 0.0957031 3.38017 0.635657 2.41905 1.59678C1.45792 2.5579 0.917969 3.86147 0.917969 5.2207V40.0707C0.917969 41.4299 1.45792 42.7335 2.41905 43.6946C3.38017 44.6557 4.68373 45.1957 6.04297 45.1957H22.443C23.8022 45.1957 25.1058 44.6557 26.0669 43.6946C27.028 42.7335 27.568 41.4299 27.568 40.0707V5.2207C27.568 3.86147 27.028 2.5579 26.0669 1.59678C25.1058 0.635657 23.8022 0.0957031 22.443 0.0957031ZM14.243 43.1457C12.5415 43.1457 11.168 41.7722 11.168 40.0707C11.168 38.3692 12.5415 36.9957 14.243 36.9957C15.9445 36.9957 17.318 38.3692 17.318 40.0707C17.318 41.7722 15.9445 43.1457 14.243 43.1457ZM23.468 34.9457H5.01797V6.2457H23.468V34.9457Z" fill="white"/>
<path d="M22.443 0.0957031H6.04297C4.68373 0.0957031 3.38017 0.635657 2.41905 1.59678C1.45792 2.5579 0.917969 3.86147 0.917969 5.2207V40.0707C0.917969 41.4299 1.45792 42.7335 2.41905 43.6946C3.38017 44.6557 4.68373 45.1957 6.04297 45.1957H22.443C23.8022 45.1957 25.1058 44.6557 26.0669 43.6946C27.028 42.7335 27.568 41.4299 27.568 40.0707V5.2207C27.568 3.86147 27.028 2.5579 26.0669 1.59678C25.1058 0.635657 23.8022 0.0957031 22.443 0.0957031ZM14.243 43.1457C12.5415 43.1457 11.168 41.7722 11.168 40.0707C11.168 38.3692 12.5415 36.9957 14.243 36.9957C15.9445 36.9957 17.318 38.3692 17.318 40.0707C17.318 41.7722 15.9445 43.1457 14.243 43.1457ZM23.468 34.9457H5.01797V6.2457H23.468V34.9457Z" fill="url(#paint0_linear_9749_16470)"/>
<defs>
<linearGradient id="paint0_linear_9749_16470" x1="0.917969" y1="0.0957031" x2="40.4236" y2="23.44" gradientUnits="userSpaceOnUse">
<stop stop-color="#2395FE"/>
<stop offset="1" stop-color="#139890"/>
</linearGradient>
</defs>
</svg>

<svg width="28" height="46" fill="none" xmlns="http://www.w3.org/2000/svg"><path d="M22.443.096h-16.4A5.125 5.125 0 0 0 .918 5.22v34.85a5.125 5.125 0 0 0 5.125 5.125h16.4a5.125 5.125 0 0 0 5.125-5.125V5.22A5.125 5.125 0 0 0 22.443.096Zm-8.2 43.05a3.07 3.07 0 0 1-3.075-3.075 3.07 3.07 0 0 1 3.075-3.075 3.07 3.07 0 0 1 3.075 3.075 3.07 3.07 0 0 1-3.075 3.075Zm9.225-8.2H5.018v-28.7h18.45v28.7Z" fill="#333"/><path d="M22.443.096h-16.4A5.125 5.125 0 0 0 .918 5.22v34.85a5.125 5.125 0 0 0 5.125 5.125h16.4a5.125 5.125 0 0 0 5.125-5.125V5.22A5.125 5.125 0 0 0 22.443.096Zm-8.2 43.05a3.07 3.07 0 0 1-3.075-3.075 3.07 3.07 0 0 1 3.075-3.075 3.07 3.07 0 0 1 3.075 3.075 3.07 3.07 0 0 1-3.075 3.075Zm9.225-8.2H5.018v-28.7h18.45v28.7Z" fill="#fff"/><path d="M22.443.096h-16.4A5.125 5.125 0 0 0 .918 5.22v34.85a5.125 5.125 0 0 0 5.125 5.125h16.4a5.125 5.125 0 0 0 5.125-5.125V5.22A5.125 5.125 0 0 0 22.443.096Zm-8.2 43.05a3.07 3.07 0 0 1-3.075-3.075 3.07 3.07 0 0 1 3.075-3.075 3.07 3.07 0 0 1 3.075 3.075 3.07 3.07 0 0 1-3.075 3.075Zm9.225-8.2H5.018v-28.7h18.45v28.7Z" fill="url(#a)"/><defs><linearGradient id="a" x1=".918" y1=".096" x2="40.424" y2="23.44" gradientUnits="userSpaceOnUse"><stop stop-color="#2395FE"/><stop offset="1" stop-color="#139890"/></linearGradient></defs></svg>
